icons/svgs/route-solid.svg

<svg width="24" height="24" viewBox="0 0 24 24" fill="none" xmlns="http://www.w3.org/2000/svg">
<path d="M22 5.75C22 7.74219 19.6562 10.6719 18.6797 11.8047C18.5234 12 18.3281 12.0781 18.0938 12H14.5C13.7969 12 13.25 12.5859 13.25 13.25C13.25 13.9531 13.7969 14.5 14.5 14.5H18.25C20.3203 14.5 22 16.1797 22 18.25C22 20.3203 20.3203 22 18.25 22H7.42969C7.78125 21.6484 8.17188 21.1406 8.60156 20.5938C8.83594 20.2422 9.10938 19.8906 9.34375 19.5H18.25C18.9141 19.5 19.5 18.9531 19.5 18.25C19.5 17.5859 18.9141 17 18.25 17H14.5C12.4297 17 10.75 15.3203 10.75 13.25C10.75 11.1797 12.4297 9.5 14.5 9.5H16.0234C15.2031 8.28906 14.5 6.88281 14.5 5.75C14.5 3.67969 16.1797 2 18.25 2C20.3203 2 22 3.67969 22 5.75ZM6.57031 21.1406C6.41406 21.2969 6.25781 21.4531 6.17969 21.5703L6.10156 21.6484C5.86719 21.8047 5.51562 21.8047 5.32031 21.5703C4.30469 20.4766 2 17.7422 2 15.75C2 13.6797 3.67969 12 5.75 12C7.82031 12 9.5 13.6797 9.5 15.75C9.5 16.9219 8.64062 18.3672 7.78125 19.5781C7.35156 20.1641 6.92188 20.6719 6.57031 21.1016V21.1406ZM7 15.75C7 15.0859 6.41406 14.5 5.75 14.5C5.04688 14.5 4.5 15.0859 4.5 15.75C4.5 16.4531 5.04688 17 5.75 17C6.41406 17 7 16.4531 7 15.75ZM18.25 7C18.9141 7 19.5 6.45312 19.5 5.75C19.5 5.08594 18.9141 4.5 18.25 4.5C17.5469 4.5 17 5.08594 17 5.75C17 6.45312 17.5469 7 18.25 7Z" fill="black"/>
</svg>

<svg xmlns="http://www.w3.org/2000/svg" width="24" height="24" fill="currentColor" class="icon-route-solid" viewBox="0 0 24 24">
  <mask id="a" width="20" height="20" x="2" y="2" maskUnits="userSpaceOnUse" style="mask-type:alpha">
    <path d="M22 5.75c0 1.992-2.344 4.922-3.32 6.055-.157.195-.352.273-.586.195H14.5c-.703 0-1.25.586-1.25 1.25 0 .703.547 1.25 1.25 1.25h3.75a3.751 3.751 0 0 1 0 7.5H7.43c.351-.352.742-.86 1.172-1.406.234-.352.507-.703.742-1.094h8.906c.664 0 1.25-.547 1.25-1.25 0-.664-.586-1.25-1.25-1.25H14.5a3.751 3.751 0 0 1 0-7.5h1.523c-.82-1.21-1.523-2.617-1.523-3.75a3.751 3.751 0 0 1 7.5 0M6.57 21.14c-.156.157-.312.313-.39.43l-.078.078c-.235.157-.586.157-.782-.078C4.305 20.477 2 17.742 2 15.75a3.751 3.751 0 0 1 7.5 0c0 1.172-.86 2.617-1.719 3.828-.43.586-.86 1.094-1.21 1.524zM7 15.75c0-.664-.586-1.25-1.25-1.25-.703 0-1.25.586-1.25 1.25 0 .703.547 1.25 1.25 1.25.664 0 1.25-.547 1.25-1.25M18.25 7c.664 0 1.25-.547 1.25-1.25 0-.664-.586-1.25-1.25-1.25-.703 0-1.25.586-1.25 1.25 0 .703.547 1.25 1.25 1.25"/>
  </mask>
  <g mask="url(#a)">
    <path d="M0 0h24v24H0z"/>
  </g>
</svg>
